X:14942
T:Scholar, The
R:Reel
O:Ireland
M:4/4
K:D
A|\
dfaf gfeg | fdAG FGA=c | BGFG EFGg | fdec dcBA|
dfaf gfeg | fdAG FGA=c| BGFG EFGg\
|1 fdecd3 :|2 fdec defg |:
a2af dfaf | dfaf bagf | g2ge =cege| =cege agfg|
a2af dfaf | dfaf bagf | g2gf gbag \
|1 fdec defg :|2 fdecd3|]
